src/static/logos/thimble.svg

<?xml version="1.0" encoding="UTF-8" standalone="no"?>
<svg width="256px" height="279px" viewBox="0 0 256 279" version="1.1" xmlns="http://www.w3.org/2000/svg" xmlns:xlink="http://www.w3.org/1999/xlink" preserveAspectRatio="xMidYMid">
	<g>
		<path d="M251.895709,223.299253 C249.584407,220.999744 238.134033,214.732109 238.134033,214.732109 C238.134033,214.732109 220.056356,46.5318866 216.748601,41.0838197 C213.43495,35.6475451 177.733603,0.777558255 125.475792,0.777558255 C82.5162508,0.771662078 41.36094,32.098047 38.2713436,41.0838197 C35.075616,50.4174668 16.8682235,214.708524 16.8682235,214.708524 C16.8682235,214.708524 5.4001605,220.416023 3.61951525,223.299253 C1.85066235,226.182483 -1.38044229,238.735443 0.695011786,246.74245 C2.77046586,254.749458 67.1508153,278.764584 127.680962,278.764584 C185.027173,278.764584 251.040763,253.499468 254.76125,246.74245 C257.084344,242.514892 254.189321,225.616451 251.895709,223.299253" fill="#A3B5BE"></path>
		<path d="M166.613414,164.361075 C163.25849,164.361075 160.499079,161.613456 160.499079,158.240844 C160.499079,154.850542 163.25849,152.114716 166.613414,152.114716 C169.997819,152.114716 172.75723,154.850542 172.75723,158.240844 C172.75723,161.613456 169.997819,164.361075 166.613414,164.361075 M166.613414,135.021701 C163.25849,135.021701 160.499079,132.279979 160.499079,128.877885 C160.499079,125.505273 163.25849,122.757654 166.613414,122.757654 C169.997819,122.757654 172.75723,125.505273 172.75723,128.877885 C172.75723,132.279979 169.997819,135.021701 166.613414,135.021701 M169.773764,92.6694665 C164.142916,92.6694665 159.538002,88.0881375 159.538002,82.4101197 C159.538002,76.7615827 164.142916,72.1743575 169.773764,72.1743575 C175.445886,72.1743575 180.0508,76.7556865 180.0508,82.4101197 C180.0508,88.0881375 175.445886,92.6694665 169.773764,92.6694665 M125.469895,0.777558255 L125.469895,0.777558255 L124.862589,62.0211419 C129.921509,62.6402404 133.860154,66.9621377 133.860154,72.1802537 C133.860154,77.4986048 129.821274,81.8440867 124.662119,82.3747426 L124.455753,103.300272 C129.721039,103.742486 133.860154,108.158722 133.860154,113.518346 C133.860154,118.954621 129.603115,123.400338 124.255283,123.730523 L123.995851,149.803415 C129.473399,150.009781 133.860154,154.508564 133.860154,160.033281 C133.860154,165.61696 129.361372,170.168808 123.795381,170.274939 L123.6126,189.036573 C123.6126,189.036573 70.2463079,191.129715 16.8623273,214.708524 L16.8623273,214.708524 C16.8623273,214.708524 5.39426433,220.416023 3.61361907,223.299253 L3.61361907,223.299253 C1.84476617,226.182483 -1.17407611,239.354541 0.68911561,246.74245 L0.68911561,246.74245 C0.700907962,246.783724 0.712700315,246.813204 0.724492668,246.848582 C3.17140585,254.354414 68.3241544,278.764584 127.675065,278.764584 L127.675065,278.764584 C185.021276,278.764584 251.034867,253.499468 254.755354,246.74245 L254.755354,246.74245 C256.194021,242.155225 255.002993,231.589277 253.304895,226.241445 C252.844993,224.844051 252.373299,223.806324 251.913397,223.328734 L251.913397,223.322838 C251.907501,223.322838 251.907501,223.311046 251.907501,223.311046 C251.901605,223.311046 251.901605,223.305149 251.895709,223.299253 L251.895709,223.299253 C249.584407,220.999744 238.134033,214.732109 238.134033,214.732109 C238.134033,214.732109 220.056356,46.5318866 216.748601,41.0838197 C213.43495,35.6475451 177.733603,0.777558255 125.469895,0.777558255" fill="#B5C4CB"></path>
		<path d="M160.49908,128.880833 C160.499079,128.881816 160.499079,128.882799 160.499079,128.883782 C160.499079,132.285875 163.25849,135.027597 166.613414,135.027597 C169.997819,135.027597 172.75723,132.279979 172.75723,128.883782 C172.75723,128.882799 172.757229,128.881816 172.757229,128.880833 C172.757229,128.879851 172.75723,128.878868 172.75723,128.877885 C172.75723,125.511169 169.997819,122.757654 166.613414,122.757654 C163.25849,122.757654 160.499079,125.505273 160.499079,128.877885 C160.499079,128.878868 160.499079,128.879851 160.49908,128.880834 L160.49908,128.880833 Z M87.6754051,82.421912 C87.6754051,88.0999298 83.0645952,92.6753627 77.4101621,92.6753627 C71.7616252,92.6753627 67.1567115,88.0999298 67.1567115,82.421912 C67.1567115,76.7674789 71.7616252,72.1861499 77.4101621,72.1861499 C83.0645952,72.1861499 87.6754051,76.7674789 87.6754051,82.421912 Z M133.866051,72.1802537 C133.866051,77.8582715 129.261137,82.4278082 123.600808,82.4278082 C117.969959,82.4278082 113.359149,77.8582715 113.359149,72.1802537 C113.359149,66.5317168 117.969959,61.9444916 123.600808,61.9444916 C129.255241,61.9444916 133.866051,66.5258206 133.866051,72.1802537 Z M133.866051,113.518346 C133.866051,119.172779 129.261137,123.754108 123.600808,123.754108 C117.969959,123.754108 113.359149,119.172779 113.359149,113.518346 C113.359149,107.869809 117.969959,103.264895 123.600808,103.264895 C129.255241,103.264895 133.866051,107.869809 133.866051,113.518346 Z M133.866051,160.039177 C133.866051,165.69361 129.261137,170.280836 123.600808,170.280836 C117.969959,170.280836 113.359149,165.69361 113.359149,160.039177 C113.359149,154.372952 117.969959,149.791623 123.600808,149.791623 C129.255241,149.785727 133.866051,154.372952 133.866051,160.039177 Z M180.0508,82.4160158 C180.0508,88.0881375 175.445886,92.6753627 169.773764,92.6753627 C164.142916,92.6753627 159.538002,88.0940336 159.538002,82.4160158 C159.538002,76.7674789 164.142916,72.1802537 169.773764,72.1802537 C175.445886,72.1802537 180.0508,76.7615827 180.0508,82.4160158 Z M172.75723,158.240844 C172.75723,161.613456 169.997819,164.361075 166.613414,164.361075 C163.25849,164.361075 160.499079,161.613456 160.499079,158.240844 C160.499079,154.850542 163.25849,152.114716 166.613414,152.114716 C169.997819,152.114716 172.75723,154.850542 172.75723,158.240844 Z M82.5103547,128.883782 C82.5103547,132.279979 79.780425,135.027597 76.3901236,135.027597 C72.9998222,135.027597 70.2463079,132.285875 70.2463079,128.883782 C70.2463079,125.511169 73.0057184,122.763551 76.3901236,122.763551 C79.7745288,122.763551 82.5103547,125.511169 82.5103547,128.883782 Z M76.3783313,164.372867 C79.7649543,164.372867 82.5103547,161.627467 82.5103547,158.240844 C82.5103547,154.854221 79.7649543,152.10882 76.3783313,152.10882 C72.9917083,152.10882 70.2463079,154.854221 70.2463079,158.240844 C70.2463079,161.627467 72.9917083,164.372867 76.3783313,164.372867 Z" fill="#FFFFFF"></path>
		<path d="M224.767401,239.177656 C224.767401,239.177656 184.673402,260.409787 127.675065,260.409787 C74.0493416,260.409787 30.7006532,239.177656 30.7006532,239.177656 C30.7006532,239.177656 73.3418004,214.720317 127.675065,214.720317 C184.266566,214.714421 224.767401,239.177656 224.767401,239.177656 L224.767401,239.177656 Z" fill="#647882"></path>
	</g>
</svg>

<svg width="256" height="279" xmlns="http://www.w3.org/2000/svg" preserveAspectRatio="xMidYMid"><path d="M251.896 223.3c-2.312-2.3-13.762-8.568-13.762-8.568s-18.078-168.2-21.385-173.648C213.435 35.648 177.734.778 125.476.778 82.516.772 41.36 32.098 38.27 41.084c-3.195 9.333-21.403 173.625-21.403 173.625S5.4 220.416 3.62 223.299c-1.77 2.883-5 15.436-2.925 23.443 2.075 8.007 66.456 32.023 126.986 32.023 57.346 0 123.36-25.266 127.08-32.023 2.323-4.227-.572-21.126-2.865-23.443" fill="#A3B5BE"/><path d="M166.613 164.361c-3.355 0-6.114-2.748-6.114-6.12 0-3.39 2.76-6.126 6.114-6.126 3.385 0 6.144 2.736 6.144 6.126 0 3.372-2.76 6.12-6.144 6.12m0-29.34c-3.355 0-6.114-2.741-6.114-6.143 0-3.373 2.76-6.12 6.114-6.12 3.385 0 6.144 2.747 6.144 6.12a6.144 6.144 0 01-6.144 6.144m3.16-42.353c-5.63 0-10.235-4.58-10.235-10.259 0-5.648 4.605-10.236 10.236-10.236 5.672 0 10.277 4.582 10.277 10.236 0 5.678-4.605 10.26-10.277 10.26M125.47.777l-.607 61.243c5.059.62 8.997 4.941 8.997 10.16 0 5.318-4.039 9.663-9.198 10.194l-.206 20.925c5.265.442 9.404 4.859 9.404 10.218 0 5.437-4.257 9.882-9.605 10.213l-.26 26.072c5.478.207 9.865 4.706 9.865 10.23 0 5.584-4.499 10.136-10.065 10.242l-.182 18.762s-53.367 2.093-106.75 25.672c0 0-11.469 5.707-13.25 8.59-1.768 2.883-4.787 16.056-2.924 23.443.012.042.024.071.035.107 2.447 7.505 67.6 31.916 126.951 31.916 57.346 0 123.36-25.266 127.08-32.023 1.439-4.587.248-15.153-1.45-20.5-.46-1.398-.932-2.436-1.392-2.913v-.006c-.005 0-.005-.012-.005-.012-.006 0-.006-.006-.012-.012-2.312-2.3-13.762-8.567-13.762-8.567s-18.078-168.2-21.385-173.648C213.435 35.648 177.734.778 125.469.778" fill="#B5C4CB"/><path d="M160.5 128.88v.004c0 3.402 2.758 6.144 6.113 6.144a6.147 6.147 0 006.144-6.144v-.006c0-3.367-2.76-6.12-6.144-6.12-3.355 0-6.114 2.747-6.114 6.12v.003zM87.674 82.423c0 5.678-4.61 10.253-10.265 10.253-5.648 0-10.253-4.575-10.253-10.253 0-5.655 4.605-10.236 10.253-10.236 5.655 0 10.265 4.581 10.265 10.236zm46.191-10.242c0 5.678-4.605 10.248-10.265 10.248-5.631 0-10.242-4.57-10.242-10.248 0-5.648 4.611-10.236 10.242-10.236 5.654 0 10.265 4.582 10.265 10.236zm0 41.338c0 5.655-4.605 10.236-10.265 10.236-5.631 0-10.242-4.581-10.242-10.236 0-5.648 4.611-10.253 10.242-10.253 5.654 0 10.265 4.605 10.265 10.253zm0 46.521c0 5.655-4.605 10.242-10.265 10.242-5.631 0-10.242-4.587-10.242-10.242 0-5.666 4.611-10.247 10.242-10.247 5.654-.006 10.265 4.581 10.265 10.247zm46.185-77.623c0 5.672-4.605 10.26-10.277 10.26-5.631 0-10.236-4.582-10.236-10.26 0-5.649 4.605-10.236 10.236-10.236 5.672 0 10.277 4.582 10.277 10.236zm-7.294 75.825c0 3.372-2.76 6.12-6.144 6.12-3.355 0-6.114-2.748-6.114-6.12 0-3.39 2.76-6.126 6.114-6.126 3.385 0 6.144 2.736 6.144 6.126zM82.51 128.884c0 3.396-2.73 6.144-6.12 6.144a6.14 6.14 0 01-6.144-6.144c0-3.373 2.76-6.12 6.144-6.12a6.122 6.122 0 016.12 6.12zm-6.132 35.489a6.132 6.132 0 100-12.264 6.132 6.132 0 000 12.264z" fill="#FFF"/><path d="M224.767 239.178s-40.094 21.232-97.092 21.232c-53.626 0-96.974-21.232-96.974-21.232s42.64-24.458 96.974-24.458c56.592-.006 97.092 24.458 97.092 24.458z" fill="#647882"/></svg>
